X: 37271
T: Skibbereen Lasses, The
R: reel
M: 4/4
K: Amajor
|:e2 cA cdef|=gedc BcdB|e2 cA cdef|=gedB cA A2|
e2 cA cdef|=gedc BcdB|cAcd edef|=gedB cA A2:|
|:cAce a2 ef|=gedc BcdB|eA A2 a2 ef|=gedB cA A2|
cAce a2 ef|=gedc BcdB|A2 (3Bcd eaaf|=gedB cA A2:|

